Newaita/actions/32/zoom-fit-best.svg

<svg height="32" viewBox="0 0 32 32" width="32" xmlns="http://www.w3.org/2000/svg"><g fill="#424242"><path d="m19.859375 10.164062c-.003906-.152343-.058594-.300781-.15625-.417968l-3.308594-3.972656c-.273437-.328126-.78125-.328126-1.054687 0l-3.308594 3.972656c-.371094.445312-.054688 1.125.527344 1.125h6.617187c.386719 0 .695313-.320313.683594-.707032zm0 0"/><path d="m19.859375 22.089844c-.003906.15625-.058594.300781-.15625.421875l-3.308594 3.96875c-.273437.328125-.78125.328125-1.054687 0l-3.308594-3.96875c-.371094-.449219-.054688-1.125.527344-1.125h6.617187c.386719 0 .695313.316406.683594.703125zm0 0"/><path d="m21.832031 20.121094c.152344-.003906.300781-.058594.417969-.160156l3.96875-3.304688c.328125-.277344.328125-.78125 0-1.054688l-3.96875-3.308593c-.449219-.371094-1.125-.054688-1.125.527343v6.613282c0 .386718.320312.699218.707031.6875zm0 0"/><path d="m9.902344 20.121094c-.152344-.003906-.300782-.058594-.417969-.160156l-3.96875-3.304688c-.332031-.277344-.332031-.78125 0-1.054688l3.96875-3.308593c.445313-.371094 1.125-.054688 1.125.527343v6.613282c0 .386718-.320313.699218-.707031.6875zm0 0"/><path d="m5.292969 2.894531c-1.464844 0-2.648438 1.183594-2.648438 2.648438v5.292969h2.648438v-3.96875c0-.734376.589843-1.324219 1.320312-1.324219h3.972657v-2.648438zm15.875 0v2.648438h3.96875c.734375 0 1.324219.589843 1.324219 1.324219v3.96875h2.644531v-5.292969c0-1.464844-1.179688-2.648438-2.644531-2.648438zm-18.523438 18.523438v5.292969c0 1.464843 1.183594 2.644531 2.648438 2.644531h5.292969v-2.644531h-3.972657c-.730469 0-1.320312-.589844-1.320312-1.324219v-3.96875zm23.816407 0v3.96875c0 .734375-.589844 1.324219-1.324219 1.324219h-3.96875v2.644531h5.292969c1.464843 0 2.644531-1.179688 2.644531-2.644531v-5.292969zm0 0"/></g></svg>

<svg xmlns="http://www.w3.org/2000/svg" xmlns:xlink="http://www.w3.org/1999/xlink" width="32px" height="32px" viewBox="0 0 32 32" version="1.1">
<g id="surface1">
     <defs>
  <style id="current-color-scheme" type="text/css">
   .ColorScheme-Text { color:#424242; } .ColorScheme-Highlight { color:#eeeeee; }
  </style>
 </defs>
<path style="fill:currentColor" class="ColorScheme-Text" d="M 19.859375 10.164062 C 19.855469 10.011719 19.800781 9.863281 19.703125 9.746094 L 16.394531 5.773438 C 16.121094 5.445312 15.613281 5.445312 15.339844 5.773438 L 12.03125 9.746094 C 11.660156 10.191406 11.976562 10.871094 12.558594 10.871094 L 19.175781 10.871094 C 19.5625 10.871094 19.871094 10.550781 19.859375 10.164062 Z M 19.859375 10.164062 "/>
     <defs>
  <style id="current-color-scheme" type="text/css">
   .ColorScheme-Text { color:#424242; } .ColorScheme-Highlight { color:#eeeeee; }
  </style>
 </defs>
<path style="fill:currentColor" class="ColorScheme-Text" d="M 19.859375 22.089844 C 19.855469 22.246094 19.800781 22.390625 19.703125 22.511719 L 16.394531 26.480469 C 16.121094 26.808594 15.613281 26.808594 15.339844 26.480469 L 12.03125 22.511719 C 11.660156 22.0625 11.976562 21.386719 12.558594 21.386719 L 19.175781 21.386719 C 19.5625 21.386719 19.871094 21.703125 19.859375 22.089844 Z M 19.859375 22.089844 "/>
     <defs>
  <style id="current-color-scheme" type="text/css">
   .ColorScheme-Text { color:#424242; } .ColorScheme-Highlight { color:#eeeeee; }
  </style>
 </defs>
<path style="fill:currentColor" class="ColorScheme-Text" d="M 21.832031 20.121094 C 21.984375 20.117188 22.132812 20.0625 22.25 19.960938 L 26.21875 16.65625 C 26.546875 16.378906 26.546875 15.875 26.21875 15.601562 L 22.25 12.292969 C 21.800781 11.921875 21.125 12.238281 21.125 12.820312 L 21.125 19.433594 C 21.125 19.820312 21.445312 20.132812 21.832031 20.121094 Z M 21.832031 20.121094 "/>
     <defs>
  <style id="current-color-scheme" type="text/css">
   .ColorScheme-Text { color:#424242; } .ColorScheme-Highlight { color:#eeeeee; }
  </style>
 </defs>
<path style="fill:currentColor" class="ColorScheme-Text" d="M 9.902344 20.121094 C 9.75 20.117188 9.601562 20.0625 9.484375 19.960938 L 5.515625 16.65625 C 5.183594 16.378906 5.183594 15.875 5.515625 15.601562 L 9.484375 12.292969 C 9.929688 11.921875 10.609375 12.238281 10.609375 12.820312 L 10.609375 19.433594 C 10.609375 19.820312 10.289062 20.132812 9.902344 20.121094 Z M 9.902344 20.121094 "/>
     <defs>
  <style id="current-color-scheme" type="text/css">
   .ColorScheme-Text { color:#424242; } .ColorScheme-Highlight { color:#eeeeee; }
  </style>
 </defs>
<path style="fill:currentColor" class="ColorScheme-Text" d="M 5.292969 2.894531 C 3.828125 2.894531 2.644531 4.078125 2.644531 5.542969 L 2.644531 10.835938 L 5.292969 10.835938 L 5.292969 6.867188 C 5.292969 6.132812 5.882812 5.542969 6.613281 5.542969 L 10.585938 5.542969 L 10.585938 2.894531 Z M 21.167969 2.894531 L 21.167969 5.542969 L 25.136719 5.542969 C 25.871094 5.542969 26.460938 6.132812 26.460938 6.867188 L 26.460938 10.835938 L 29.105469 10.835938 L 29.105469 5.542969 C 29.105469 4.078125 27.925781 2.894531 26.460938 2.894531 Z M 2.644531 21.417969 L 2.644531 26.710938 C 2.644531 28.175781 3.828125 29.355469 5.292969 29.355469 L 10.585938 29.355469 L 10.585938 26.710938 L 6.613281 26.710938 C 5.882812 26.710938 5.292969 26.121094 5.292969 25.386719 L 5.292969 21.417969 Z M 26.460938 21.417969 L 26.460938 25.386719 C 26.460938 26.121094 25.871094 26.710938 25.136719 26.710938 L 21.167969 26.710938 L 21.167969 29.355469 L 26.460938 29.355469 C 27.925781 29.355469 29.105469 28.175781 29.105469 26.710938 L 29.105469 21.417969 Z M 26.460938 21.417969 "/>
</g>
</svg>
